X:1
T:Title
%%score { 1 | 2 }
L:1/8
Q:1/4=100
M:4/4
K:F
V:1 treble nm="Grand Piano"
V:2 bass 
V:1
 c2 A>A c3 A | [B,EG]3 [CEA] [B,EG]2 [A,F]2 | [B,DF]2[K:bass] [F,B,D]>[F,B,D][K:treble] [F,CF]3 G | %3
w: Robert~Lowry * * * *|||
 A2 [DB]2 A2 G2 | A2 A>A A2 G2 | F2 [CE]2 [B,D]3 [B,D] | [CF]3 [CF] G3 G | A2 A2 [EG]3 A | %8
w: |||||
 c3 A G2 F2 | F2 [DG]2 [^CA]3 [CG] |[M:9/8] [DF]3 [B,D] [A,C]2- [A,C] [CA]2 | %11
w: |||
[M:4/4] [B,CG]3 [A,CF] [A,CF]4[Q:1/4=99][Q:1/4=97][Q:1/4=96][Q:1/4=94][Q:1/4=93][Q:1/4=91][Q:1/4=90][Q:1/4=88][Q:1/4=87][Q:1/4=85][Q:1/4=84][Q:1/4=82][Q:1/4=81][Q:1/4=79][Q:1/4=78][Q:1/4=76] |] %12
w: |
V:2
 [F,A,F]2 [F,CF]>[F,CF] [F,A,F]3 [F,A,F] | C,3 C, C,2 F,2 | B,,2 B,,>B,, A,,3 [C,E,C] | %3
 [F,C]2 [B,,F,]2 [C,F,C]2 [C,E,C]2 | [F,C]2 [F,C]>[F,C] [F,C]2 [C,E,B,]2 | %5
 [D,F,A,]2 [A,,F,]2 [B,,F,]3 [B,,F,] | [A,,F,]3 [A,,F,] [C,E,C]3 [C,E,C] | %7
 [F,C]2 [F,A,F]2 [C,C]3 [F,CF] | [F,A,F]3 [F,C] [C,E,B,]2 [D,F,A,]2 | %9
 [D,F,C]2 [B,,D,]2 [A,,E,]3 [A,,E,] |[M:9/8] [B,,D,]3 [B,,F,] [F,,F,]2- [F,,F,] [F,,F,]2 | %11
[M:4/4] C,3 F,, F,,4 |] %12

